X:133
T:Kerry Jig, The
T:An Gearraltach Buidhe
T:Yellow Fitzgerald
T:Lucy Farr's #2
T:Brady's Set #2
R:jig
H:Sometimes claimed to be composed by Lucy Farr (1911-2003), but appears in older
H:collections, e.g. James Goodman collection No. 70, O'Neill's No. 991
Z:id:hn-jig-133
M:6/8
K:Ador
ABA AGE|ABA AGE|GBA GBA|GED DEG|~A3 ABc|dBA G2D|GBd dcB|1 c3 B3:|2 c3 c2d||
efe e2d|ceg g3|GBA GBA|GED DEG|~A3 ABc|dBA G2D|GBd dcB|1 c3 c2d:|2 c3 B3||

